X: 26313
T: Memories Of Sligo
R: barndance
M: 4/4
K: Amajor
K: Amaj
|:e2fe cAce|f2 B2 B3 c|(3dcB (3AGF Ee^de|fe^de cEAc|
eefe cAce|f2 B2 B3 c|(3dcB (3AGF EdcB|1 A2 a2 a3 f|2 A2 a2 abag||
K: Dmaj
|:f2 d2 dfa^g|b2 e2 efgf|e2 c2 c3 e|afdf abag|
f2 d2 dfa^g|b2 e2 efgf|(3efe (3ded (3cdc (3BcB|1 Agfe dfag:|2 Agfe d4||

